public/topics/16.svg

<svg width="250" height="250" viewBox="0 0 250 250" fill="none" xmlns="http://www.w3.org/2000/svg">
<rect width="250" height="250" rx="30" fill="#663399"/>
<path d="M88.6 89.8C87.2667 115.933 86.6 136.733 86.6 152.2C86.6 160.2 86.8 167.8 87.2 175C88.2667 175.8 90.3333 176.2 93.4 176.2L98 176C99.8667 175.733 101.6 175.6 103.2 175.6C106.667 175.6 109.333 176.2 111.2 177.4C113.2 178.6 114.2 180.933 114.2 184.4C114.2 187.733 113.2 190.333 111.2 192.2C109.333 194.067 105.4 195 99.4 195C94.3333 195 88.2 194.6 81 193.8C79.2667 193.667 77.6 193.533 76 193.4C74.4 193.267 72.9333 193.2 71.6 193.2C64.2667 193.333 58.8 193.6 55.2 194C51.6 194.4 47.5333 194.6 43 194.6C38.8667 194.6 36.8 191.467 36.8 185.2C36.8 179.2 40.6667 176.2 48.4 176.2C49.6 176.2 51.5333 176.333 54.2 176.6C56.4667 177 58.8667 177.2 61.4 177.2C62.8667 177.2 64.0667 177.133 65 177C65.1333 168.067 65.6 155.067 66.4 138C67.2 118 67.6 103.2 67.6 93.6C66.9333 93.7333 64.6 94.6667 60.6 96.4C54.4667 99.4667 49.9333 101 47 101C45.4 101 43.9333 100.2 42.6 98.6C41.2667 96.8667 40.6 94.8667 40.6 92.6C40.6 90.3333 42 88.1333 44.8 86C47.6 83.8667 52.1333 81.0667 58.4 77.6C61.8667 75.8667 65.2 73.9333 68.4 71.8C69.2 71.2667 70.3333 70.7333 71.8 70.2C73.4 69.6667 74.6 69.4 75.4 69.4C78.8667 69.4 82 70.1333 84.8 71.6C87.7333 72.9333 89.2 74.7333 89.2 77L88.6 89.8ZM181.573 89C177.04 90.7333 173.173 93 169.973 95.8C166.773 98.4667 163.907 101.733 161.373 105.6L158.173 110.6C155.773 114.2 153.973 117.133 152.773 119.4C151.573 121.667 150.773 124.067 150.373 126.6C156.907 119.933 166.24 116.6 178.373 116.6C183.573 116.6 189.04 118.067 194.773 121C200.64 123.933 205.373 127.333 208.973 131.2C211.24 133.733 213.107 137.6 214.573 142.8C216.173 148 216.973 153.533 216.973 159.4C216.973 164.067 215.573 168.867 212.773 173.8C209.973 178.6 206.507 182.8 202.373 186.4C198.373 190 194.64 192.267 191.173 193.2C185.84 194.533 181.24 195.2 177.373 195.2C168.573 195.2 160.44 192.8 152.973 188C145.507 183.2 139.573 176.8 135.173 168.8C130.773 160.667 128.573 151.867 128.573 142.4C128.573 129.333 131.707 116.867 137.973 105C144.373 93 152.773 83.2667 163.173 75.8C164.907 74.6 167.973 73.3333 172.373 72C176.907 70.5333 180.907 69.8 184.373 69.8C190.907 69.8 194.173 72.4 194.173 77.6C194.173 80.6667 193.04 83.0667 190.773 84.8C188.64 86.5333 185.573 87.9333 181.573 89ZM173.573 176.8C176.64 176.8 179.24 176.667 181.373 176.4C183.507 176 185.44 175.267 187.173 174.2C189.84 172.333 192.173 170.133 194.173 167.6C196.307 164.933 197.373 162.4 197.373 160C197.373 150.8 195.107 144.333 190.573 140.6C186.173 136.867 180.973 134.933 174.973 134.8C171.907 134.8 168.373 135.667 164.373 137.4C160.507 139 157.173 141.133 154.373 143.8C151.707 146.467 150.373 149.067 150.373 151.6C150.373 157.333 151.573 162.133 153.973 166C156.507 169.733 159.573 172.467 163.173 174.2C166.773 175.933 170.24 176.8 173.573 176.8Z" fill="white"/>
</svg>

<svg xmlns="http://www.w3.org/2000/svg" width="250" height="250" fill="none" viewBox="0 0 250 250"><rect width="250" height="250" fill="#639" rx="30"/><path fill="#fff" d="M88.6 89.8q-2 39.2-2 62.4 0 12 .6 22.8 1.6 1.2 6.2 1.2l4.6-.2q2.8-.4 5.2-.4 5.2 0 8 1.8 3 1.8 3 7 0 5-3 7.8-2.8 2.8-11.8 2.8-7.6 0-18.4-1.2a789 789 0 0 1-5-.4 54 54 0 0 0-4.4-.2q-11 .2-16.4.8t-12.2.6q-6.2 0-6.2-9.4 0-9 11.6-9 1.8 0 5.8.4 3.4.6 7.2.6 2.2 0 3.6-.2.2-13.4 1.4-39 1.2-30 1.2-44.4-1 .2-7 2.8Q51.4 101 47 101q-2.4 0-4.4-2.4-2-2.6-2-6t4.2-6.6 13.6-8.4a93 93 0 0 0 10-5.8q1.2-.8 3.4-1.6 2.4-.8 3.6-.8 5.2 0 9.4 2.2 4.4 2 4.4 5.4zm92.973-.8q-6.8 2.6-11.6 6.8-4.8 4-8.6 9.8l-3.2 5q-3.6 5.4-5.4 8.8t-2.4 7.2q9.8-10 28-10 7.8 0 16.4 4.4 8.8 4.4 14.2 10.2 3.4 3.8 5.6 11.6 2.4 7.8 2.4 16.6 0 7-4.2 14.4-4.2 7.2-10.4 12.6-6 5.4-11.2 6.8-8 2-13.8 2-13.2 0-24.4-7.2t-17.8-19.2q-6.6-12.2-6.6-26.4 0-19.6 9.4-37.4 9.6-18 25.2-29.2 2.6-1.8 9.2-3.8 6.801-2.2 12-2.2 9.8 0 9.8 7.8 0 4.6-3.4 7.2-3.2 2.6-9.2 4.2m-8 87.8q4.6 0 7.8-.4 3.2-.6 5.8-2.2 4-2.8 7-6.6 3.2-4 3.2-7.6 0-13.8-6.8-19.4-6.6-5.6-15.6-5.8-4.6 0-10.6 2.6-5.8 2.4-10 6.4-4 4-4 7.8 0 8.6 3.6 14.4 3.8 5.6 9.2 8.2t10.4 2.6"/></svg>
